brandFactory_export/1.Light/Bandera_1Light.svg

<?xml version="1.0" encoding="UTF-8"?>
<svg width="24px" height="24px" viewBox="0 0 24 24" version="1.1" xmlns="http://www.w3.org/2000/svg" xmlns:xlink="http://www.w3.org/1999/xlink">
    <title>1.Light/Bandera_1Light</title>
    <g id="Symbols" stroke="none" stroke-width="1" fill="none" fill-rule="evenodd">
        <g id="1.Light/Bandera_1Light" fill="#5CB615" fill-rule="nonzero">
            <path d="M21.6907563,11.5294118 C21.6201681,11.6773109 21.4689076,11.7714286 21.3042017,11.7681544 L2.96134454,11.7681544 L2.96134454,1.39831933 C2.96134454,1.16302521 3.15294118,0.971428571 3.39159664,0.971428571 L21.3008403,0.971428571 C21.5495798,0.971428571 21.6605042,1.15294118 21.687395,1.21008403 C21.7243697,1.28067227 21.7882353,1.46890756 21.6840336,1.61344538 L17.8823529,5.39495798 C17.3512605,5.92941176 17.3512605,6.79327731 17.8823529,7.32773109 L21.6470588,11.0789916 C21.794958,11.2705882 21.7243697,11.4588235 21.6907563,11.5294118 Z M18.5579832,6.66890756 C18.389916,6.50084034 18.3865546,6.22857143 18.5546218,6.05714286 L22.4,2.23193277 C22.7226891,1.82184874 22.7764706,1.2605042 22.5411765,0.793277311 C22.3092437,0.322689076 21.8285714,0.0268907563 21.3042017,0.0302237528 L3.39495798,0.0302237528 C2.63529412,0.0302237528 2.01680672,0.642016807 2.01680672,1.39495798 L2.01680672,23.1831933 C2.01680672,23.4420168 2.22857143,23.6537815 2.4907563,23.6537815 C2.74957983,23.6537815 2.96470588,23.4453782 2.96470588,23.1865546 L2.96470588,12.7092437 L21.3042017,12.7092437 C21.8319328,12.7092437 22.3058824,12.4168067 22.5411765,11.9462185 C22.7764706,11.4756303 22.7226891,10.9243697 22.3596639,10.4605042 L18.5579832,6.66890756 L18.5579832,6.66890756 Z" id="Bandera_1Light"></path>
        </g>
    </g>
</svg>

<svg width="24" height="24" viewBox="0 0 24 24" xmlns="http://www.w3.org/2000/svg"><path d="M21.69 11.53a.42.42 0 01-.386.238H2.961V1.398c0-.235.192-.427.43-.427h17.91c.249 0 .36.182.386.24.037.07.101.258-.003.402l-3.802 3.782a1.371 1.371 0 000 1.933l3.765 3.751c.148.192.077.38.044.45zm-3.132-4.861a.434.434 0 01-.003-.612L22.4 2.232c.323-.41.376-.971.141-1.439A1.369 1.369 0 0021.304.03H3.395c-.76 0-1.378.612-1.378 1.365v21.788c0 .259.212.47.474.47a.472.472 0 00.474-.466V12.709h18.34c.527 0 1-.292 1.236-.763.235-.47.182-1.022-.181-1.485l-3.802-3.792z" fill="#5CB615" fill-rule="nonzero"/></svg>
